flaticon/interaction/image-19.svg

<svg xmlns="http://www.w3.org/2000/svg" width="32" height="32" viewBox="0 0 24 24">
    <path d="M 19.035156 13.242188 C 16.296875 13.242188 14.070312 15.46875 14.070312 18.207031 C 14.070312 20.945312 16.296875 23.171875 19.035156 23.171875 C 21.773438 23.171875 24 20.945312 24 18.207031 C 24 15.46875 21.773438 13.242188 19.035156 13.242188 Z M 19.035156 22.34375 C 16.753906 22.34375 14.898438 20.488281 14.898438 18.207031 C 14.898438 15.925781 16.753906 14.070312 19.035156 14.070312 C 21.316406 14.070312 23.171875 15.925781 23.171875 18.207031 C 23.171875 20.488281 21.316406 22.34375 19.035156 22.34375 Z M 19.035156 22.34375"/>
    <path d="M21.515625 17.792969L19.449219 17.792969 19.449219 15.722656C19.449219 15.496094 19.261719 15.308594 19.035156 15.308594 18.804688 15.308594 18.621094 15.496094 18.621094 15.722656L18.621094 18.207031C18.621094 18.4375 18.804688 18.621094 19.035156 18.621094L21.515625 18.621094C21.746094 18.621094 21.929688 18.4375 21.929688 18.207031 21.929688 17.976562 21.746094 17.792969 21.515625 17.792969zM8.925781 6.441406C8.925781 5.171875 7.890625 4.136719 6.621094 4.136719 5.351562 4.136719 4.316406 5.171875 4.316406 6.441406 4.316406 7.710938 5.351562 8.746094 6.621094 8.746094 7.890625 8.746094 8.925781 7.714844 8.925781 6.441406zM5.144531 6.441406C5.144531 5.628906 5.804688 4.964844 6.621094 4.964844 7.433594 4.964844 8.097656 5.628906 8.097656 6.441406 8.097656 7.257812 7.433594 7.917969 6.621094 7.917969 5.804688 7.917969 5.144531 7.257812 5.144531 6.441406zM12.777344 11.78125L16.578125 7.621094 21.238281 11.890625C21.40625 12.046875 21.667969 12.035156 21.820312 11.867188 21.976562 11.695312 21.964844 11.433594 21.796875 11.28125L16.832031 6.730469C16.75 6.65625 16.640625 6.613281 16.53125 6.621094 16.421875 6.625 16.320312 6.675781 16.246094 6.753906L12.191406 11.195312 10.230469 9.230469C10.078125 9.078125 9.828125 9.070312 9.664062 9.214844L2.621094 15.414062C2.453125 15.5625 2.433594 15.824219 2.585938 15.996094 2.667969 16.089844 2.78125 16.136719 2.898438 16.136719 2.992188 16.136719 3.089844 16.105469 3.171875 16.035156L9.921875 10.09375 12.949219 13.121094C13.109375 13.28125 13.371094 13.28125 13.535156 13.121094 13.695312 12.957031 13.695312 12.695312 13.535156 12.535156zM12.777344 11.78125"/>
    <path d="M 23.585938 0.828125 L 0.414062 0.828125 C 0.183594 0.828125 0 1.011719 0 1.242188 L 0 19.449219 C 0 19.675781 0.183594 19.863281 0.414062 19.863281 L 12.414062 19.863281 C 12.644531 19.863281 12.828125 19.675781 12.828125 19.449219 C 12.828125 19.21875 12.644531 19.035156 12.414062 19.035156 L 0.828125 19.035156 L 0.828125 1.65625 L 23.171875 1.65625 L 23.171875 14.070312 C 23.171875 14.296875 23.355469 14.484375 23.585938 14.484375 C 23.816406 14.484375 24 14.296875 24 14.070312 L 24 1.242188 C 24 1.011719 23.816406 0.828125 23.585938 0.828125 Z M 23.585938 0.828125"/>
</svg>

<svg xmlns="http://www.w3.org/2000/svg" width="32" height="32" viewBox="0 0 24 24">
    <path d="M19.035 13.242a4.97 4.97 0 0 0-4.965 4.965 4.97 4.97 0 0 0 4.965 4.965A4.97 4.97 0 0 0 24 18.207a4.97 4.97 0 0 0-4.965-4.965zm0 9.102a4.141 4.141 0 0 1-4.137-4.137 4.141 4.141 0 0 1 4.137-4.137 4.141 4.141 0 0 1 4.137 4.137 4.141 4.141 0 0 1-4.137 4.137zm0 0"/>
    <path d="M21.516 17.793h-2.067v-2.07a.414.414 0 0 0-.828 0v2.484c0 .23.184.414.414.414h2.48c.231 0 .415-.183.415-.414a.412.412 0 0 0-.414-.414zm0 0M8.926 6.441A2.309 2.309 0 0 0 6.62 4.137 2.309 2.309 0 0 0 4.316 6.44a2.309 2.309 0 0 0 2.305 2.305 2.306 2.306 0 0 0 2.305-2.305zm-3.781 0c0-.812.66-1.476 1.476-1.476A1.48 1.48 0 0 1 8.098 6.44c0 .817-.664 1.477-1.477 1.477-.816 0-1.476-.66-1.476-1.477zm0 0M12.777 11.781l3.801-4.16 4.66 4.27a.414.414 0 0 0 .559-.61l-4.965-4.55a.417.417 0 0 0-.586.023l-4.055 4.441-1.96-1.965a.416.416 0 0 0-.567-.015l-7.043 6.2a.413.413 0 0 0 .277.722.418.418 0 0 0 .274-.102l6.75-5.941 3.027 3.027c.16.16.422.16.586 0a.417.417 0 0 0 0-.586zm0 0"/>
    <path d="M23.586.828H.414A.412.412 0 0 0 0 1.242V19.45c0 .227.184.414.414.414h12a.414.414 0 0 0 0-.828H.828V1.656h22.344V14.07a.414.414 0 0 0 .828 0V1.242a.412.412 0 0 0-.414-.414zm0 0"/>
</svg>
